status/symbolic/software-update-available-symbolic.svg

<?xml version="1.0" encoding="UTF-8" standalone="no"?>
<!-- Created with Inkscape (http://www.inkscape.org/) -->

<svg
   xmlns:osb="http://www.openswatchbook.org/uri/2009/osb"
   xmlns:dc="http://purl.org/dc/elements/1.1/"
   xmlns:cc="http://creativecommons.org/ns#"
   xmlns:rdf="http://www.w3.org/1999/02/22-rdf-syntax-ns#"
   xmlns:svg="http://www.w3.org/2000/svg"
   xmlns="http://www.w3.org/2000/svg"
   xmlns:sodipodi="http://sodipodi.sourceforge.net/DTD/sodipodi-0.dtd"
   xmlns:inkscape="http://www.inkscape.org/namespaces/inkscape"
   sodipodi:docname="software-update-available-symbolic.svg"
   inkscape:export-filename="/home/sam/source-symbolic.png"
   inkscape:export-xdpi="270"
   inkscape:export-ydpi="270"
   height="16"
   id="svg7384"
   style="enable-background:new"
   version="1.1"
   inkscape:version="0.91 r13725"
   width="16">
  <sodipodi:namedview
     inkscape:bbox-nodes="true"
     inkscape:bbox-paths="false"
     bordercolor="#666666"
     borderlayer="false"
     borderopacity="1"
     inkscape:current-layer="svg7384"
     inkscape:cx="3.4035945"
     inkscape:cy="-7.1506145"
     gridtolerance="10"
     inkscape:guide-bbox="true"
     guidetolerance="10"
     id="namedview88"
     inkscape:object-nodes="true"
     inkscape:object-paths="true"
     objecttolerance="10"
     pagecolor="#f7f7f7"
     inkscape:pageopacity="1"
     inkscape:pageshadow="2"
     showborder="true"
     showgrid="false"
     showguides="true"
     inkscape:showpageshadow="false"
     inkscape:snap-bbox="true"
     inkscape:snap-bbox-edge-midpoints="false"
     inkscape:snap-bbox-midpoints="true"
     inkscape:snap-center="false"
     inkscape:snap-global="true"
     inkscape:snap-grids="true"
     inkscape:snap-intersection-paths="true"
     inkscape:snap-midpoints="true"
     inkscape:snap-nodes="true"
     inkscape:snap-object-midpoints="true"
     inkscape:snap-others="true"
     inkscape:snap-page="false"
     inkscape:snap-smooth-nodes="true"
     inkscape:snap-to-guides="true"
     inkscape:window-height="711"
     inkscape:window-maximized="1"
     inkscape:window-width="1366"
     inkscape:window-x="0"
     inkscape:window-y="27"
     inkscape:zoom="16">
    <inkscape:grid
       color="#000000"
       dotted="false"
       empcolor="#0800ff"
       empopacity="0.4627451"
       empspacing="4"
       enabled="true"
       id="grid4866"
       opacity="0.16470588"
       originx="-164.0002"
       originy="-592.00336"
       snapvisiblegridlinesonly="true"
       spacingx="0.25px"
       spacingy="0.25px"
       type="xygrid"
       visible="true" />
  </sodipodi:namedview>
  <metadata
     id="metadata90">
    <rdf:RDF>
      <cc:Work
         rdf:about="">
        <dc:format>image/svg+xml</dc:format>
        <dc:type
           rdf:resource="http://purl.org/dc/dcmitype/StillImage" />
        <dc:title>Paper Symbolic Icon Theme</dc:title>
      </cc:Work>
    </rdf:RDF>
  </metadata>
  <title
     id="title8473">Paper Symbolic Icon Theme</title>
  <defs
     id="defs7386">
    <linearGradient
       id="linearGradient5606"
       osb:paint="solid">
      <stop
         id="stop5608"
         offset="0"
         style="stop-color:#000000;stop-opacity:1;" />
    </linearGradient>
  </defs>
  <path
     inkscape:connector-curvature="0"
     d="M 8,2 C 7.36717,2.62447 6.7634,3.342 6.12017,3.95547 l -2.1647,0 0,2.1647 C 3.34188,6.76342 2.62455,7.36715 2,8 2.62452,8.63288 3.34192,9.26228 3.95547,9.90558 l 0,2.14056 2.1647,0 C 6.76342,12.65973 7.36715,13.37545 8,14 8.63288,13.37548 9.26228,12.65969 9.90558,12.04614 l 2.13895,-0.002 0,-2.13894 C 12.65812,9.26194 13.37545,8.63247 14,7.99962 13.37548,7.36673 12.65808,6.76308 12.04453,6.11979 l 0,-2.16631 -2.13895,0.002 C 9.26232,3.34189 8.63285,2.62456 8,2.00001 Z m 0,2.8294 2.11159,3.16738 -0.0515,0 -1.23606,0 0,3.34764 -1.64806,-0.0257 0,-3.32189 -1.23606,0 -0.0515,0 C 6.84933,6.59398 7.73853,5.23152 8,4.82945 Z"
     id="path6775"
     style="display:inline;fill:#bebebe;fill-opacity:1;stroke:none;enable-background:new" />
</svg>

<svg xmlns="http://www.w3.org/2000/svg" viewBox="0 0 16 16">
  <path fill="#bebebe" d="M8 2c-.633.624-1.237 1.342-1.88 1.955H3.955V6.12C3.342 6.763 2.625 7.367 2 8c.625.633 1.342 1.262 1.955 1.906v2.141H6.12C6.763 12.66 7.367 13.375 8 14c.633-.625 1.262-1.34 1.906-1.954l2.139-.002V9.905C12.658 9.262 13.375 8.632 14 8c-.625-.633-1.342-1.237-1.955-1.88V3.954l-2.139.002C9.262 3.342 8.633 2.625 8 2zm0 2.829l2.112 3.167H8.824v3.348l-1.648-.026V7.996H5.888A161.904 161.904 0 0 0 8 4.829z"/>
</svg>
